static/logos/twilio-glyph-color.svg

<svg width="50" height="50" viewBox="0 0 50 50" fill="none" xmlns="http://www.w3.org/2000/svg">
<g clip-path="url(#clip0_1_632)">
<path d="M24.975 0C38.7944 0 49.9498 11.1667 49.9498 25C49.9498 38.8333 38.7944 50 24.975 50C11.1555 50 0 38.8333 0 25C0 11.1667 11.1555 0 24.975 0ZM24.975 6.66667C14.8185 6.66667 6.65998 14.8333 6.65998 25C6.65998 35.1667 14.8185 43.3333 24.975 43.3333C35.1314 43.3333 43.2898 35.1667 43.2898 25C43.2898 14.8333 35.1314 6.66667 24.975 6.66667ZM18.8144 26C21.645 26 23.9759 28.3333 23.9759 31.1667C23.9759 34 21.645 36.3333 18.8144 36.3333C15.9839 36.3333 13.653 34 13.653 31.1667C13.653 28.3333 15.9839 26 18.8144 26ZM31.1355 26C33.9659 26 36.2969 28.3333 36.2969 31.1667C36.2969 34 33.9659 36.3333 31.1355 36.3333C28.3048 36.3333 25.9739 34 25.9739 31.1667C25.9739 28.3333 28.3048 26 31.1355 26ZM31.1355 13.6667C33.9659 13.6667 36.2969 16 36.2969 18.8333C36.2969 21.6667 33.9659 24 31.1355 24C28.3048 24 25.9739 21.6667 25.9739 18.8333C25.9739 16 28.3048 13.6667 31.1355 13.6667ZM18.8144 13.6667C21.645 13.6667 23.9759 16 23.9759 18.8333C23.9759 21.6667 21.645 24 18.8144 24C15.9839 24 13.653 21.6667 13.653 18.8333C13.653 16 15.9839 13.6667 18.8144 13.6667Z" fill="#F22F46"/>
</g>
<defs>
<clipPath id="clip0_1_632">
<rect width="50" height="50" fill="white"/>
</clipPath>
</defs>
</svg>

<svg xmlns="http://www.w3.org/2000/svg" width="64" height="64" fill="none" viewBox="0 0 50 50"><g clip-path="url(#a)"><path fill="#F22F46" d="M24.975 0C38.795 0 49.95 11.167 49.95 25S38.794 50 24.975 50C11.155 50 0 38.833 0 25S11.155 0 24.975 0Zm0 6.667A18.271 18.271 0 0 0 6.66 25a18.271 18.271 0 0 0 18.315 18.333A18.271 18.271 0 0 0 43.29 25 18.271 18.271 0 0 0 24.975 6.667ZM18.815 26c2.83 0 5.16 2.333 5.16 5.167 0 2.833-2.33 5.166-5.16 5.166-2.831 0-5.162-2.333-5.162-5.166 0-2.834 2.33-5.167 5.161-5.167Zm12.32 0c2.83 0 5.162 2.333 5.162 5.167 0 2.833-2.331 5.166-5.161 5.166-2.831 0-5.162-2.333-5.162-5.166 0-2.834 2.33-5.167 5.162-5.167Zm0-12.333c2.83 0 5.162 2.333 5.162 5.166 0 2.834-2.331 5.167-5.161 5.167-2.831 0-5.162-2.333-5.162-5.167 0-2.833 2.33-5.166 5.162-5.166Zm-12.32 0c2.83 0 5.16 2.333 5.16 5.166 0 2.834-2.33 5.167-5.16 5.167-2.831 0-5.162-2.333-5.162-5.167 0-2.833 2.33-5.166 5.161-5.166Z"/></g><defs><clipPath id="a"><path fill="#fff" d="M0 0h50v50H0z"/></clipPath></defs></svg>
